X: 2399
T: BOATMANS DANCE
%R: hornpipe
B: James Kerr "Merry Melodies" v.2 p.45 #399
Z: 2016 John Chambers <jc:trillian.mit.edu>
M: C
L: 1/8
K: G
D2 |\
G>FG>B d2d2 | e2e2 d4 |\
ve2d2 B2G2 | B2A2 (3fed (3cBA |\
G>FG>B d2d2 | e2e2 d4 |\
ve2d2 gdBG | B2A2 G2 :|
|: ud2 |\
g2f2 e2d2 | e2d2 B4 |\
ve2d2 cBAG | FAag (3fed (3cBA |\
G>FG>B d2d2 | e2e2 d4 |\
ve2d2 gdBG | B2A2 G2 :|
